X:1476
T:Pretty Peggy
R:reel
N:"collected from J. O'Neill"
B:"O'Neill's Dance Music of Ireland, 1476"
T: mair.greadin .deas.
Z:transcribed by John B. Walsh, 8/22/96
M:C|
L:1/8
K:D
A|d2 (fd) AFED|d2 (fd) egfe|d2 fd AFDF|GBFA EDCE|
d2 (fd) AFED|d2 (fd) egfe|((3fga) ((3gec) ((3dcB) ((3ABG)|FDEC (A,D) D||
A|((3FED) (AD) BDAD|((3FED) (AD) CEEG|((3FED) (AD) BDAD|((3GFE) ((3FED) A,DDA|
((3FED) (dD) cDBD|AD (G/F/E/D/) CEEG|FAdf ecdB|AFGE (FD) D||


